Newaita-dark/apps/64/cherrytree.svg

<svg height="64pt" viewBox="0 0 64 64" width="64pt" xmlns="http://www.w3.org/2000/svg" xmlns:xlink="http://www.w3.org/1999/xlink"><linearGradient id="a" gradientTransform="matrix(.00520883 0 0 .125012 40.352814 26.877566)" gradientUnits="userSpaceOnUse" x1="254" x2="254" y1="233.5" y2="254.666672"><stop offset="0" stop-opacity=".27451"/><stop offset="1" stop-opacity="0"/></linearGradient><linearGradient id="b"><stop offset="0" stop-opacity=".313726"/><stop offset=".222222" stop-opacity=".27451"/><stop offset="1" stop-opacity="0"/></linearGradient><radialGradient id="c" cx="450.908936" cy="189.579361" gradientTransform="matrix(.00000035 -.156265 -.281277 -.0000002 95.000038 127.190722)" gradientUnits="userSpaceOnUse" r="21.166656" xlink:href="#b"/><radialGradient id="d" cx="450.908936" cy="189.579361" gradientTransform="matrix(-.00000035 .156265 .281277 .0000002 -11.648268 -15.054964)" gradientUnits="userSpaceOnUse" r="21.166656" xlink:href="#b"/><radialGradient id="e" cx="450.908936" cy="189.579361" gradientTransform="matrix(-.00000035 -.156265 .281277 -.0000002 -11.648268 127.190661)" gradientUnits="userSpaceOnUse" r="21.166656" xlink:href="#b"/><radialGradient id="f" cx="450.908936" cy="189.579361" gradientTransform="matrix(.00000035 .156265 -.281277 .0000002 95.000034 -15.055017)" gradientUnits="userSpaceOnUse" r="21.166656" xlink:href="#b"/><linearGradient id="g" gradientUnits="userSpaceOnUse" x1="41.01435500013" x2="41.01435500013" y1="30.93003850002" y2="5.79220799994"><stop offset="0" stop-color="#66bb6a"/><stop offset="1" stop-color="#aed581"/></linearGradient><linearGradient id="h"><stop offset="0" stop-color="#f44336"/><stop offset="1" stop-color="#ff5252"/></linearGradient><linearGradient id="i" gradientTransform="matrix(.164387 .0949089 -.0949089 .164387 -23.961646 -25.883913)" gradientUnits="userSpaceOnUse" x1="365.125" x2="365.125" xlink:href="#h" y1="233.5" y2="85.333336"/><linearGradient id="j" gradientUnits="userSpaceOnUse" x1="43.48757725" x2="43.48757725" xlink:href="#h" y1="56.082682" y2="27.95798217285"/><path d="m41.015625 56.066406h1.320313v2.648438h-1.320313zm0 0" fill="url(#a)"/><path d="m42.335938 56.066406h5.292968v-2.644531h-5.292968zm0 0" fill="url(#c)"/><path d="m41.015625 56.066406h-5.292969v2.648438h5.292969zm0 0" fill="url(#d)"/><path d="m41.015625 56.066406h-5.292969v-2.644531h5.292969zm0 0" fill="url(#e)"/><path d="m42.335938 56.066406h5.292968v2.648438h-5.292968zm0 0" fill="url(#f)"/><path d="m35.03125 5.78125c-1.089844.015625-1.96875.902344-1.96875 1.996094 0 6.71875-6.21875 10.6875-9.335938 13.800781-.800781.777344-.808593 2.058594-.023437 2.847656.789063.789063 2.070313.777344 2.847656-.023437 1.789063-1.789063 7.117188-8.210938 9.171875-14.640625 3.96875 1.324219 5.433594 13.109375 3.398438 19.214843-.367188 1.050782.195312 2.199219 1.253906 2.550782 1.054688.351562 2.195312-.226563 2.535156-1.289063 2.074219-8.570312-.574218-16.507812-6.4375-23.875-.382812-.378906-.902344-.589843-1.441406-.582031zm0 0" fill="url(#g)"/><path d="m35.722656 8.4375c-2.054687 6.433594-7.382812 12.851562-9.171875 14.644531-.777343.796875-2.058593.808594-2.847656.019531-.21875-.21875-.375-.476562-.472656-.75-.242188.699219-.085938 1.511719.472656 2.074219.789063.789063 2.070313.777344 2.847656-.023437 1.789063-1.789063 7.117188-8.210938 9.171875-14.640625 2.546875.847656 4.0625 6.007812 4.28125 11.207031.03125-.648438.035156-1.304688.023438-1.96875-.003906.21875-.011719.433594-.023438.648438-.21875-5.203126-1.734375-10.359376-4.28125-11.210938zm7.878906 15.375c-.046874 1.675781-.273437 3.375-.691406 5.101562-.339844 1.0625-1.480468 1.644532-2.535156 1.289063-.609375-.203125-1.054688-.671875-1.253906-1.230469v.003906c-.367188 1.050782.195312 2.199219 1.253906 2.550782 1.054688.351562 2.195312-.226563 2.535156-1.289063.527344-2.183593.75-4.324219.691406-6.425781zm0 0" fill-opacity=".235294"/><path d="m35.03125 5.78125c-1.089844.015625-1.96875.90625-1.96875 1.996094 0 6.71875-6.21875 10.683594-9.335938 13.800781-.492187.476563-.683593 1.144531-.578124 1.773437.070312-.40625.261718-.792968.578124-1.097656 3.117188-3.117187 9.335938-7.085937 9.335938-13.804687 0-1.089844.878906-1.980469 1.96875-1.996094.539062-.007813 1.058594.203125 1.441406.585937 4.449219 5.585938 7.042969 11.503907 7.132813 17.777344.09375-6.523437-2.523438-12.664062-7.132813-18.453125-.382812-.378906-.902344-.589843-1.441406-.582031zm5 16.839844c-.027344 2.332031-.320312 4.582031-.910156 6.355468-.117188.332032-.140625.671876-.085938.996094.019532-.109375.046875-.21875.085938-.324218.644531-1.941407.9375-4.457032.910156-7.027344zm0 0" fill="#fff" fill-opacity=".392157"/><path d="m280.22324-168.754416c-8.717917.124988-15.748496 7.21806-15.748496 15.967225 0 53.744868-49.74525 85.491836-74.680368 110.395708-6.405639 6.218156-6.468133 16.467177-.187483 22.779074 6.311898 6.311898 16.560919 6.218157 22.779075-.187482 14.311134-14.311133 56.932063-65.681227 73.367994-117.113816 31.746968 10.592739 43.464599 104.864986 27.184904 153.704072-2.93722 8.405447 1.562351 17.59207 10.030292 20.404302 8.436694 2.812231 17.560823-1.812327 20.279313-10.311516 16.592166-68.555953-4.593311-132.04989-51.495082-190.981762-3.062208-3.03096-7.218061-4.718299-11.530149-4.655805zm0 0" fill="none" stroke="#212121" stroke-linecap="round" stroke-linejoin="round" stroke-width="3" transform="matrix(.125012 0 0 .125012 0 26.877566)"/><path d="m21.371094 20.152344c-11.308594-6.53125-15.453125 7.710937-16.0625 11.941406-1.007813 4.917969 1.132812 10.738281 6.632812 13.914062 5.5 3.175782 11.609375 2.117188 15.367188-1.210937 3.359375-2.644531 13.621094-13.351563 2.3125-19.882813-2.320313-1.339843-3.34375-1.359374-4.539063-1.667968-.867187-.882813-1.390625-1.753906-3.710937-3.09375zm0 0" fill="url(#i)"/><path d="m18.597656 23.5625c.515625.964844-.476562 2.503906-2.214844 3.433594-1.742187.929687-3.570312.898437-4.085937-.070313-.519531-.964843.472656-2.503906 2.214844-3.433593 1.738281-.929688 3.570312-.898438 4.085937.070312zm0 0" fill="#fff" fill-opacity=".313726"/><path d="m21.371094 20.152344c-6.867188-3.964844-11.09375-.269532-13.488282 4.191406 2.472657-3.984375 6.5625-6.867188 12.914063-3.199219 2.320313 1.339844 2.847656 2.210938 3.714844 3.09375 1.195312.308594 2.214843.328125 4.535156 1.667969 6.351563 3.667969 5.898437 8.652344 3.6875 12.785156 2.664063-4.304687 3.753906-9.8125-3.113281-13.777344-2.320313-1.339843-3.34375-1.359374-4.539063-1.667968-.867187-.882813-1.390625-1.753906-3.710937-3.09375zm0 0" fill="#fcfcfc" fill-opacity=".392157"/><path d="m8.546875 23.203125c-1.996094 3.136719-2.96875 7.007813-3.238281 8.890625-1.007813 4.917969 1.132812 10.738281 6.632812 13.914062 5.5 3.175782 11.609375 2.117188 15.367188-1.210937 1.496094-1.179687 4.359375-3.957031 6.078125-7.25-1.714844 2.710937-4.035157 4.929687-5.328125 5.949219-3.757813 3.332031-9.867188 4.386718-15.367188 1.210937s-7.640625-8.992187-6.632812-13.914062c.234375-1.628907.996094-4.746094 2.488281-7.589844zm0 0" fill-opacity=".235294"/><path d="m270.852671 16.676893c-104.46326-.015451-76.211363 115.224439-63.512574 146.968455 12.688333 38.100298 50.796629 69.859073 101.60002 69.861531 50.803392.002458 88.892371-31.766161 101.613545-69.8517 12.695095-31.756318 40.959544-146.972679-63.503716-146.98813-21.432925-.001459-28.600948 3.956596-38.115782 6.599594-9.538391-2.647302-16.648568-6.58829-38.081493-6.58975zm0 0" style="fill:none;stroke-width:3;stroke-linecap:round;stroke-linejoin:round;stroke:#212121;stroke-opacity:.832258" transform="matrix(.108264 .062506 -.062506 .108264 -6.909963 1.416936)"/><path d="m36.457031 28.960938c-13.058593 0-9.527343 14.40625-7.9375 18.375 1.585938 4.761718 6.347657 8.730468 12.699219 8.730468s11.113281-3.96875 12.703125-8.730468c1.585937-3.96875 5.117187-18.375-7.941406-18.375-2.675781 0-3.570313.496093-4.761719.824218-1.191406-.328125-2.082031-.824218-4.761719-.824218zm0 0" fill="url(#j)"/><path d="m35.761719 33.300781c.929687.578125.839843 2.40625-.203125 4.082031-1.042969 1.675782-2.640625 2.5625-3.574219 1.984376-.929687-.578126-.839844-2.40625.203125-4.082032 1.042969-1.675781 2.640625-2.5625 3.574219-1.984375zm0 0" fill="#fff" fill-opacity=".313726"/><path d="m36.457031 28.960938c-7.929687 0-9.742187 5.3125-9.585937 10.375.152344-4.6875 2.253906-9.226563 9.585937-9.226563 2.679688 0 3.570313.492187 4.761719.820313 1.191406-.328126 2.085938-.820313 4.761719-.820313 7.335937 0 9.433593 4.539063 9.585937 9.226563.15625-5.0625-1.65625-10.375-9.585937-10.375-2.675781 0-3.570313.496093-4.761719.824218-1.191406-.328125-2.082031-.824218-4.761719-.824218zm0 0" fill="#fcfcfc" fill-opacity=".392157"/><path d="m26.878906 38.015625c-.160156 3.714844.933594 7.550781 1.640625 9.320313 1.585938 4.761718 6.347657 8.730468 12.699219 8.730468s11.113281-3.96875 12.703125-8.730468c.707031-1.769532 1.796875-5.605469 1.640625-9.320313-.128906 3.210937-1.03125 6.289063-1.640625 7.820313-1.589844 4.761718-6.351563 8.730468-12.703125 8.730468s-11.113281-3.96875-12.699219-8.730468c-.613281-1.53125-1.515625-4.609376-1.640625-7.820313zm0 0" fill-opacity=".235294"/><path d="m270.847227 16.665377c-104.458775 0-76.211472 115.238995-63.493936 146.985964 12.686288 38.090112 50.776401 69.83708 101.584049 69.83708s88.89776-31.746968 101.615296-69.83708c12.686288-31.746969 40.933591-146.985964-63.525184-146.985964-21.404206 0-28.559772 3.968371-38.090112 6.59312-9.53034-2.624749-16.65466-6.59312-38.090113-6.59312zm0 0" style="fill:none;stroke-width:3;stroke-linecap:round;stroke-linejoin:round;stroke:#212121;stroke-opacity:.832258" transform="matrix(.125012 0 0 .125012 2.597895 26.877566)"/></svg>

<?xml version="1.0" encoding="UTF-8"?>
<svg xmlns="http://www.w3.org/2000/svg" xmlns:xlink="http://www.w3.org/1999/xlink" width="64pt" height="64pt" viewBox="0 0 64 64" version="1.1">
<defs>
<linearGradient id="linear0" gradientUnits="userSpaceOnUse" x1="254" y1="233.5" x2="254" y2="254.666672" gradientTransform="matrix(0.00520883,0,0,0.125012,40.352814,26.877566)">
<stop offset="0" style="stop-color:rgb(0%,0%,0%);stop-opacity:0.27451;"/>
<stop offset="1" style="stop-color:rgb(0%,0%,0%);stop-opacity:0;"/>
</linearGradient>
<radialGradient id="radial0" gradientUnits="userSpaceOnUse" cx="450.908936" cy="189.579361" fx="450.908936" fy="189.579361" r="21.166656" gradientTransform="matrix(0.000000348341,-0.156265,-0.281277,-0.000000203077,95.000038,127.190722)">
<stop offset="0" style="stop-color:rgb(0%,0%,0%);stop-opacity:0.313726;"/>
<stop offset="0.222222" style="stop-color:rgb(0%,0%,0%);stop-opacity:0.27451;"/>
<stop offset="1" style="stop-color:rgb(0%,0%,0%);stop-opacity:0;"/>
</radialGradient>
<radialGradient id="radial1" gradientUnits="userSpaceOnUse" cx="450.908936" cy="189.579361" fx="450.908936" fy="189.579361" r="21.166656" gradientTransform="matrix(-0.000000348341,0.156265,0.281277,0.000000203077,-11.648268,-15.054964)">
<stop offset="0" style="stop-color:rgb(0%,0%,0%);stop-opacity:0.313726;"/>
<stop offset="0.222222" style="stop-color:rgb(0%,0%,0%);stop-opacity:0.27451;"/>
<stop offset="1" style="stop-color:rgb(0%,0%,0%);stop-opacity:0;"/>
</radialGradient>
<radialGradient id="radial2" gradientUnits="userSpaceOnUse" cx="450.908936" cy="189.579361" fx="450.908936" fy="189.579361" r="21.166656" gradientTransform="matrix(-0.000000348341,-0.156265,0.281277,-0.000000203077,-11.648268,127.190661)">
<stop offset="0" style="stop-color:rgb(0%,0%,0%);stop-opacity:0.313726;"/>
<stop offset="0.222222" style="stop-color:rgb(0%,0%,0%);stop-opacity:0.27451;"/>
<stop offset="1" style="stop-color:rgb(0%,0%,0%);stop-opacity:0;"/>
</radialGradient>
<radialGradient id="radial3" gradientUnits="userSpaceOnUse" cx="450.908936" cy="189.579361" fx="450.908936" fy="189.579361" r="21.166656" gradientTransform="matrix(0.000000348341,0.156265,-0.281277,0.000000203077,95.000034,-15.055017)">
<stop offset="0" style="stop-color:rgb(0%,0%,0%);stop-opacity:0.313726;"/>
<stop offset="0.222222" style="stop-color:rgb(0%,0%,0%);stop-opacity:0.27451;"/>
<stop offset="1" style="stop-color:rgb(0%,0%,0%);stop-opacity:0;"/>
</radialGradient>
<linearGradient id="linear1" gradientUnits="userSpaceOnUse" x1="328.083344" y1="32.416668" x2="328.083344" y2="-168.666672" gradientTransform="matrix(0.125012,0,0,0.125012,0,26.877566)">
<stop offset="0" style="stop-color:rgb(40.000001%,73.333335%,41.568628%);stop-opacity:1;"/>
<stop offset="1" style="stop-color:rgb(68.235296%,83.529413%,50.588238%);stop-opacity:1;"/>
</linearGradient>
<linearGradient id="linear2" gradientUnits="userSpaceOnUse" x1="365.125" y1="233.5" x2="365.125" y2="85.333336" gradientTransform="matrix(0.164387,0.0949089,-0.0949089,0.164387,-23.961646,-25.883913)">
<stop offset="0" style="stop-color:rgb(95.686275%,26.274511%,21.176471%);stop-opacity:1;"/>
<stop offset="1" style="stop-color:rgb(100%,32.156864%,32.156864%);stop-opacity:1;"/>
</linearGradient>
<linearGradient id="linear3" gradientUnits="userSpaceOnUse" x1="365.125" y1="233.5" x2="365.125" y2="85.333336" gradientTransform="matrix(0.189818,0,0,0.189818,-25.81972,11.760179)">
<stop offset="0" style="stop-color:rgb(95.686275%,26.274511%,21.176471%);stop-opacity:1;"/>
<stop offset="1" style="stop-color:rgb(100%,32.156864%,32.156864%);stop-opacity:1;"/>
</linearGradient>
</defs>
<g id="surface1">
<path style=" stroke:none;fill-rule:nonzero;fill:url(#linear0);" d="M 41.015625 56.066406 L 42.335938 56.066406 L 42.335938 58.714844 L 41.015625 58.714844 Z M 41.015625 56.066406 "/>
<path style=" stroke:none;fill-rule:nonzero;fill:url(#radial0);" d="M 42.335938 56.066406 L 47.628906 56.066406 L 47.628906 53.421875 L 42.335938 53.421875 Z M 42.335938 56.066406 "/>
<path style=" stroke:none;fill-rule:nonzero;fill:url(#radial1);" d="M 41.015625 56.066406 L 35.722656 56.066406 L 35.722656 58.714844 L 41.015625 58.714844 Z M 41.015625 56.066406 "/>
<path style=" stroke:none;fill-rule:nonzero;fill:url(#radial2);" d="M 41.015625 56.066406 L 35.722656 56.066406 L 35.722656 53.421875 L 41.015625 53.421875 Z M 41.015625 56.066406 "/>
<path style=" stroke:none;fill-rule:nonzero;fill:url(#radial3);" d="M 42.335938 56.066406 L 47.628906 56.066406 L 47.628906 58.714844 L 42.335938 58.714844 Z M 42.335938 56.066406 "/>
<path style=" stroke:none;fill-rule:nonzero;fill:url(#linear1);" d="M 35.03125 5.78125 C 33.941406 5.796875 33.0625 6.683594 33.0625 7.777344 C 33.0625 14.496094 26.84375 18.464844 23.726562 21.578125 C 22.925781 22.355469 22.917969 23.636719 23.703125 24.425781 C 24.492188 25.214844 25.773438 25.203125 26.550781 24.402344 C 28.339844 22.613281 33.667969 16.191406 35.722656 9.761719 C 39.691406 11.085938 41.15625 22.871094 39.121094 28.976562 C 38.753906 30.027344 39.316406 31.175781 40.375 31.527344 C 41.429688 31.878906 42.570312 31.300781 42.910156 30.238281 C 44.984375 21.667969 42.335938 13.730469 36.472656 6.363281 C 36.089844 5.984375 35.570312 5.773438 35.03125 5.78125 Z M 35.03125 5.78125 "/>
<path style=" stroke:none;fill-rule:nonzero;fill:rgb(0%,0%,0%);fill-opacity:0.235294;" d="M 35.722656 8.4375 C 33.667969 14.871094 28.339844 21.289062 26.550781 23.082031 C 25.773438 23.878906 24.492188 23.890625 23.703125 23.101562 C 23.484375 22.882812 23.328125 22.625 23.230469 22.351562 C 22.988281 23.050781 23.144531 23.863281 23.703125 24.425781 C 24.492188 25.214844 25.773438 25.203125 26.550781 24.402344 C 28.339844 22.613281 33.667969 16.191406 35.722656 9.761719 C 38.269531 10.609375 39.785156 15.769531 40.003906 20.96875 C 40.035156 20.320312 40.039062 19.664062 40.027344 19 C 40.023438 19.21875 40.015625 19.433594 40.003906 19.648438 C 39.785156 14.445312 38.269531 9.289062 35.722656 8.4375 Z M 43.601562 23.8125 C 43.554688 25.488281 43.328125 27.1875 42.910156 28.914062 C 42.570312 29.976562 41.429688 30.558594 40.375 30.203125 C 39.765625 30 39.320312 29.53125 39.121094 28.972656 C 39.121094 28.972656 39.121094 28.972656 39.121094 28.976562 C 38.753906 30.027344 39.316406 31.175781 40.375 31.527344 C 41.429688 31.878906 42.570312 31.300781 42.910156 30.238281 C 43.4375 28.054688 43.660156 25.914062 43.601562 23.8125 Z M 43.601562 23.8125 "/>
<path style=" stroke:none;fill-rule:nonzero;fill:rgb(100%,100%,100%);fill-opacity:0.392157;" d="M 35.03125 5.78125 C 33.941406 5.796875 33.0625 6.6875 33.0625 7.777344 C 33.0625 14.496094 26.84375 18.460938 23.726562 21.578125 C 23.234375 22.054688 23.042969 22.722656 23.148438 23.351562 C 23.21875 22.945312 23.410156 22.558594 23.726562 22.253906 C 26.84375 19.136719 33.0625 15.167969 33.0625 8.449219 C 33.0625 7.359375 33.941406 6.46875 35.03125 6.453125 C 35.570312 6.445312 36.089844 6.65625 36.472656 7.039062 C 40.921875 12.625 43.515625 18.542969 43.605469 24.816406 C 43.699219 18.292969 41.082031 12.152344 36.472656 6.363281 C 36.089844 5.984375 35.570312 5.773438 35.03125 5.78125 Z M 40.03125 22.621094 C 40.003906 24.953125 39.710938 27.203125 39.121094 28.976562 C 39.003906 29.308594 38.980469 29.648438 39.035156 29.972656 C 39.054688 29.863281 39.082031 29.753906 39.121094 29.648438 C 39.765625 27.707031 40.058594 25.191406 40.03125 22.621094 Z M 40.03125 22.621094 "/>
<path style="fill:none;stroke-width:3;stroke-linecap:round;stroke-linejoin:round;stroke:rgb(12.941177%,12.941177%,12.941177%);stroke-opacity:1;stroke-miterlimit:4;" d="M 280.22324 -168.754416 C 271.505323 -168.629428 264.474744 -161.536356 264.474744 -152.787191 C 264.474744 -99.042323 214.729494 -67.295355 189.794376 -42.391483 C 183.388737 -36.173327 183.326243 -25.924306 189.606893 -19.612409 C 195.918791 -13.300511 206.167812 -13.394252 212.385968 -19.799891 C 226.697102 -34.111024 269.318031 -85.481118 285.753962 -136.913707 C 317.50093 -126.320968 329.218561 -32.048721 312.938866 16.790365 C 310.001646 25.195812 314.501217 34.382435 322.969158 37.194667 C 331.405852 40.006898 340.529981 35.38234 343.248471 26.883151 C 359.840637 -41.672802 338.65516 -105.166739 291.753389 -164.098611 C 288.691181 -167.129571 284.535328 -168.81691 280.22324 -168.754416 Z M 280.22324 -168.754416 " transform="matrix(0.125012,0,0,0.125012,0,26.877566)"/>
<path style=" stroke:none;fill-rule:nonzero;fill:url(#linear2);" d="M 21.371094 20.152344 C 10.0625 13.621094 5.917969 27.863281 5.308594 32.09375 C 4.300781 37.011719 6.441406 42.832031 11.941406 46.007812 C 17.441406 49.183594 23.550781 48.125 27.308594 44.796875 C 30.667969 42.152344 40.929688 31.445312 29.621094 24.914062 C 27.300781 23.574219 26.277344 23.554688 25.082031 23.246094 C 24.214844 22.363281 23.691406 21.492188 21.371094 20.152344 Z M 21.371094 20.152344 "/>
<path style=" stroke:none;fill-rule:nonzero;fill:rgb(100%,100%,100%);fill-opacity:0.313726;" d="M 18.597656 23.5625 C 19.113281 24.527344 18.121094 26.066406 16.382812 26.996094 C 14.640625 27.925781 12.8125 27.894531 12.296875 26.925781 C 11.777344 25.960938 12.769531 24.421875 14.511719 23.492188 C 16.25 22.5625 18.082031 22.59375 18.597656 23.5625 Z M 18.597656 23.5625 "/>
<path style=" stroke:none;fill-rule:nonzero;fill:rgb(98.823529%,98.823529%,98.823529%);fill-opacity:0.392157;" d="M 21.371094 20.152344 C 14.503906 16.1875 10.277344 19.882812 7.882812 24.34375 C 10.355469 20.359375 14.445312 17.476562 20.796875 21.144531 C 23.117188 22.484375 23.644531 23.355469 24.511719 24.238281 C 25.707031 24.546875 26.726562 24.566406 29.046875 25.90625 C 35.398438 29.574219 34.945312 34.558594 32.734375 38.691406 C 35.398438 34.386719 36.488281 28.878906 29.621094 24.914062 C 27.300781 23.574219 26.277344 23.554688 25.082031 23.246094 C 24.214844 22.363281 23.691406 21.492188 21.371094 20.152344 Z M 21.371094 20.152344 "/>
<path style=" stroke:none;fill-rule:nonzero;fill:rgb(0%,0%,0%);fill-opacity:0.235294;" d="M 8.546875 23.203125 C 6.550781 26.339844 5.578125 30.210938 5.308594 32.09375 C 4.300781 37.011719 6.441406 42.832031 11.941406 46.007812 C 17.441406 49.183594 23.550781 48.125 27.308594 44.796875 C 28.804688 43.617188 31.667969 40.839844 33.386719 37.546875 C 31.671875 40.257812 29.351562 42.476562 28.058594 43.496094 C 24.300781 46.828125 18.191406 47.882812 12.691406 44.707031 C 7.191406 41.53125 5.050781 35.714844 6.058594 30.792969 C 6.292969 29.164062 7.054688 26.046875 8.546875 23.203125 Z M 8.546875 23.203125 "/>
<path style="fill:none;stroke-width:3;stroke-linecap:round;stroke-linejoin:round;stroke:rgb(12.941177%,12.941177%,12.941177%);stroke-opacity:0.832258;stroke-miterlimit:4;" d="M 270.852671 16.676893 C 166.389411 16.661442 194.641308 131.901332 207.340097 163.645348 C 220.02843 201.745646 258.136726 233.504421 308.940117 233.506879 C 359.743509 233.509337 397.832488 201.740718 410.553662 163.655179 C 423.248757 131.898861 451.513206 16.6825 347.049946 16.667049 C 325.617021 16.66559 318.448998 20.623645 308.934164 23.266643 C 299.395773 20.619341 292.285596 16.678353 270.852671 16.676893 Z M 270.852671 16.676893 " transform="matrix(0.108264,0.062506,-0.062506,0.108264,-6.909963,1.416936)"/>
<path style=" stroke:none;fill-rule:nonzero;fill:url(#linear3);" d="M 36.457031 28.960938 C 23.398438 28.960938 26.929688 43.367188 28.519531 47.335938 C 30.105469 52.097656 34.867188 56.066406 41.21875 56.066406 C 47.570312 56.066406 52.332031 52.097656 53.921875 47.335938 C 55.507812 43.367188 59.039062 28.960938 45.980469 28.960938 C 43.304688 28.960938 42.410156 29.457031 41.21875 29.785156 C 40.027344 29.457031 39.136719 28.960938 36.457031 28.960938 Z M 36.457031 28.960938 "/>
<path style=" stroke:none;fill-rule:nonzero;fill:rgb(100%,100%,100%);fill-opacity:0.313726;" d="M 35.761719 33.300781 C 36.691406 33.878906 36.601562 35.707031 35.558594 37.382812 C 34.515625 39.058594 32.917969 39.945312 31.984375 39.367188 C 31.054688 38.789062 31.144531 36.960938 32.1875 35.285156 C 33.230469 33.609375 34.828125 32.722656 35.761719 33.300781 Z M 35.761719 33.300781 "/>
<path style=" stroke:none;fill-rule:nonzero;fill:rgb(98.823529%,98.823529%,98.823529%);fill-opacity:0.392157;" d="M 36.457031 28.960938 C 28.527344 28.960938 26.714844 34.273438 26.871094 39.335938 C 27.023438 34.648438 29.125 30.109375 36.457031 30.109375 C 39.136719 30.109375 40.027344 30.601562 41.21875 30.929688 C 42.410156 30.601562 43.304688 30.109375 45.980469 30.109375 C 53.316406 30.109375 55.414062 34.648438 55.566406 39.335938 C 55.722656 34.273438 53.910156 28.960938 45.980469 28.960938 C 43.304688 28.960938 42.410156 29.457031 41.21875 29.785156 C 40.027344 29.457031 39.136719 28.960938 36.457031 28.960938 Z M 36.457031 28.960938 "/>
<path style=" stroke:none;fill-rule:nonzero;fill:rgb(0%,0%,0%);fill-opacity:0.235294;" d="M 26.878906 38.015625 C 26.71875 41.730469 27.8125 45.566406 28.519531 47.335938 C 30.105469 52.097656 34.867188 56.066406 41.21875 56.066406 C 47.570312 56.066406 52.332031 52.097656 53.921875 47.335938 C 54.628906 45.566406 55.71875 41.730469 55.5625 38.015625 C 55.433594 41.226562 54.53125 44.304688 53.921875 45.835938 C 52.332031 50.597656 47.570312 54.566406 41.21875 54.566406 C 34.867188 54.566406 30.105469 50.597656 28.519531 45.835938 C 27.90625 44.304688 27.003906 41.226562 26.878906 38.015625 Z M 26.878906 38.015625 "/>
<path style="fill:none;stroke-width:3;stroke-linecap:round;stroke-linejoin:round;stroke:rgb(12.941177%,12.941177%,12.941177%);stroke-opacity:0.832258;stroke-miterlimit:4;" d="M 270.847227 16.665377 C 166.388452 16.665377 194.635755 131.904372 207.353291 163.651341 C 220.039579 201.741453 258.129692 233.488421 308.93734 233.488421 C 359.744988 233.488421 397.8351 201.741453 410.552636 163.651341 C 423.238924 131.904372 451.486227 16.665377 347.027452 16.665377 C 325.623246 16.665377 318.46768 20.633748 308.93734 23.258497 C 299.407 20.633748 292.28268 16.665377 270.847227 16.665377 Z M 270.847227 16.665377 " transform="matrix(0.125012,0,0,0.125012,2.597895,26.877566)"/>
</g>
</svg>
